symbols/web/report_off/materialsymbolsoutlined/report_off_wght700grad200_40px.svg

<svg xmlns="http://www.w3.org/2000/svg" height="40" width="40"><path d="m33.708 29.333-3.166-3.125 1.25-1.291v-9.875l-6.834-6.834h-9.875l-1.291 1.25-3.125-3.166L13.25 3.75h13.542l9.458 9.5v13.5Zm-12-12.041v-6.5h-3.375v3.166Zm12.917 22.291L29.042 34l-2.292 2.208h-13.5L3.792 26.75v-13.5L6 11 .417 5.375l2.291-2.333 34.25 34.25Zm-12.458-21.75Zm-7.125 13.959h9.875l.916-.875-16.75-16.75-.875.916v9.875ZM20 29.125q-.875 0-1.479-.583-.604-.584-.604-1.5 0-.834.583-1.438T20 25q.875 0 1.479.583.604.584.604 1.459 0 .916-.583 1.5-.583.583-1.5.583Zm-2.542-6.583Z"/></svg>

<svg xmlns="http://www.w3.org/2000/svg" height="40" width="40"><path d="M33.708 29.333 30.542 26.208 31.792 24.917V15.042L24.958 8.208H15.083L13.792 9.458L10.667 6.292L13.25 3.75H26.792L36.25 13.25V26.75ZM21.708 17.292V10.792H18.333V13.958ZM34.625 39.583 29.042 34 26.75 36.208H13.25L3.792 26.75V13.25L6 11L0.417 5.375L2.708 3.042L36.958 37.292ZM22.167 17.833ZM15.042 31.792H24.917L25.833 30.917L9.083 14.167L8.208 15.083V24.958ZM20 29.125Q19.125 29.125 18.521 28.542Q17.917 27.958 17.917 27.042Q17.917 26.208 18.5 25.604Q19.083 25 20 25Q20.875 25 21.479 25.583Q22.083 26.167 22.083 27.042Q22.083 27.958 21.5 28.542Q20.917 29.125 20 29.125ZM17.458 22.542Z"/></svg>
